public/img/6.svg

<svg width="216" height="275" viewBox="0 0 216 275" fill="none" xmlns="http://www.w3.org/2000/svg">
<g opacity="0.7">
<g clip-path="url(#clip0)">
<mask id="mask0" mask-type="alpha" maskUnits="userSpaceOnUse" x="-85" y="-71" width="536" height="535">
<path fill-rule="evenodd" clip-rule="evenodd" d="M8.00236 171.282C5.17718 179.59 2.86121 188.048 1.02446 196.488L109.906 88.7548C107.884 88.7233 105.861 88.6735 103.841 88.6238C100.543 88.5427 97.2529 88.4617 93.9861 88.4609L8.00236 171.282ZM17.0314 149.034L76.7096 89.6954C68.2292 91.173 60.1418 94.2953 52.7776 100.656C37.6657 113.707 25.8785 130.546 17.0314 149.034ZM121.654 88.5955L-2.19058 214.47C-2.99704 220.058 -3.71572 225.733 -4.30491 231.44L144.061 83.9344C136.86 86.9673 129.32 88.1774 121.654 88.5955ZM180.806 47.4022L249.348 -20.7423C246.282 -20.6628 243.153 -20.2931 239.963 -19.6041C217.72 -14.7991 204.355 7.87222 190.604 31.1987C187.398 36.637 184.172 42.1108 180.806 47.4022ZM261.454 -19.5422L-5.35884 243.775C-5.79388 250.306 -6.02165 256.832 -5.98031 263.275L267.85 -17.665C265.755 -18.4232 263.623 -19.0531 261.454 -19.5422ZM275.591 -14.2109L-5.57734 275.162C-5.38476 278.206 -5.12065 281.219 -4.77809 284.194L286.874 -6.78C283.262 -9.62704 279.499 -12.1346 275.591 -14.2109ZM290.597 -3.68215L-3.12853 295.062C-2.28728 299.46 -1.24073 303.741 0.0362308 307.873L301.919 7.81439C298.346 3.67651 294.57 -0.200213 290.597 -3.68215ZM310.936 19.3455L2.93858 316.013C4.87547 320.758 7.17535 325.255 9.88286 329.446L315.895 26.6615C314.303 24.1956 312.65 21.7502 310.936 19.3455ZM319.014 31.6435L16.9615 338.645C17.1064 338.804 17.2521 338.961 17.3986 339.118C19.4933 341.364 21.7109 343.429 24.0391 345.322L326.365 44.7482C325.994 43.9825 325.607 43.2231 325.202 42.4705C323.274 38.8895 321.21 35.2595 319.014 31.6435ZM329.452 52.3552L28.7702 348.837C33.1081 351.776 37.7623 354.207 42.6653 356.183L331.422 59.4214C330.876 57.0226 330.225 54.6655 329.452 52.3552ZM332.993 68.4828L51.192 359.104C53.8525 359.866 56.5691 360.516 59.3325 361.061L333.955 87.1236C333.99 80.7573 333.743 74.518 332.993 68.4828ZM333.801 94.541L69.952 362.631C74.6924 363.114 79.5291 363.334 84.4205 363.325L332.636 116.522C332.73 114.891 332.827 113.262 332.924 111.634C333.267 105.896 333.609 100.181 333.801 94.541ZM331.879 136.23L96.5975 362.856C104.24 362.295 111.931 361.255 119.517 359.857L332.228 149.389C331.938 145.049 331.845 140.655 331.879 136.23ZM333.162 158.033L139.463 354.906C154.069 349.036 166.145 336.267 178.311 323.402C190.787 310.209 203.357 296.916 218.849 290.862L336.719 173.674C335.215 168.437 333.969 163.215 333.162 158.033ZM339.765 183.406L234.706 287.088C239.628 286.555 244.63 286.515 249.668 286.785L342.56 191.481C341.606 188.792 340.666 186.099 339.765 183.406ZM348.574 208.455L270.177 289.14C272.219 289.455 274.257 289.781 276.289 290.107C278.265 290.423 280.235 290.738 282.197 291.042L352.487 220.915C351.336 216.795 350.001 212.638 348.574 208.455ZM354.7 229.997L293.19 292.559C299.649 293.297 305.953 293.665 312.001 293.245L356.311 249.202C356.7 242.96 356.032 236.54 354.7 229.997Z" fill="white"/>
</mask>
<g mask="url(#mask0)">
<path d="M158.271 82.8949H194.29L167.321 128.688C167.562 128.567 168.166 128.507 169.131 128.507C182.163 127.783 192.54 131.162 200.263 138.643C208.106 146.004 212.028 156.26 212.028 169.413C212.028 183.652 207.563 194.451 198.634 201.812C189.705 209.173 177.94 212.853 163.339 212.853C148.859 212.853 137.154 209.173 128.225 201.812C119.296 194.451 114.831 183.652 114.831 169.413C114.831 160.363 117.606 151.072 123.157 141.539L158.271 82.8949ZM163.339 184.979C173.958 184.979 179.267 179.79 179.267 169.413C179.267 158.794 173.958 153.485 163.339 153.485C152.6 153.485 147.23 158.794 147.23 169.413C147.23 179.79 152.6 184.979 163.339 184.979Z" fill="white"/>
</g>
</g>
</g>
<defs>
<clipPath id="clip0">
<rect width="215.608" height="274.079" fill="white"/>
</clipPath>
</defs>
</svg>

<svg width="216" height="275" fill="none" xmlns="http://www.w3.org/2000/svg"><g clip-path="url(#clip0)" opacity=".7"><mask id="a" maskUnits="userSpaceOnUse" x="-85" y="-71" width="536" height="535"><path fill-rule="evenodd" clip-rule="evenodd" d="M8.002 171.282c-2.825 8.308-5.14 16.766-6.978 25.206L109.906 88.755a680.037 680.037 0 01-6.065-.131c-3.298-.081-6.588-.162-9.855-.163L8.002 171.282zm9.03-22.248L76.71 89.695c-8.48 1.478-16.568 4.6-23.932 10.961-15.112 13.051-26.9 29.89-35.747 48.378zm104.622-60.438L-2.191 214.47a423.298 423.298 0 00-2.114 16.97L144.061 83.934c-7.201 3.033-14.741 4.243-22.407 4.662zm59.152-41.194l68.542-68.144a50.58 50.58 0 00-9.385 1.138C217.72-14.8 204.355 7.872 190.604 31.199c-3.206 5.438-6.432 10.912-9.798 16.203zm80.648-66.944L-5.359 243.775c-.435 6.531-.663 13.057-.621 19.5l273.83-280.94a53.129 53.129 0 00-6.396-1.877zm14.137 5.331L-5.577 275.162c.192 3.044.456 6.057.799 9.032L286.874-6.78c-3.612-2.847-7.375-5.355-11.283-7.43zm15.006 10.529L-3.129 295.062c.842 4.398 1.888 8.679 3.165 12.811L301.92 7.814c-3.574-4.137-7.35-8.014-11.323-11.496zm20.339 23.027L2.939 316.014c1.936 4.745 4.236 9.242 6.944 13.433L315.895 26.661a192.44 192.44 0 00-4.959-7.316zm8.078 12.299l-302.053 307a66.037 66.037 0 007.078 6.677L326.365 44.748a60.169 60.169 0 00-1.163-2.277 240.777 240.777 0 00-6.188-10.827zm10.438 20.711L28.77 348.837c4.338 2.939 8.992 5.37 13.895 7.346L331.422 59.421a74.035 74.035 0 00-1.97-7.066zm3.541 16.128L51.192 359.104a99.454 99.454 0 008.14 1.957L333.955 87.124c.035-6.367-.212-12.606-.962-18.641zm.808 26.058L69.952 362.631c4.74.483 9.577.703 14.469.694l248.215-246.803c.094-1.631.191-3.26.288-4.888.343-5.738.685-11.453.877-17.093zm-1.922 41.689L96.597 362.856c7.643-.561 15.334-1.601 22.92-2.999l212.711-210.468c-.29-4.34-.383-8.734-.349-13.159zm1.283 21.803L139.463 354.906c14.606-5.87 26.682-18.639 38.848-31.504 12.476-13.193 25.046-26.486 40.538-32.54l117.87-117.188c-1.504-5.237-2.75-10.459-3.557-15.641zm6.603 25.373L234.706 287.088c4.922-.533 9.924-.573 14.962-.303l92.892-95.304a473.6 473.6 0 01-2.795-8.075zm8.809 25.049l-78.397 80.685c2.042.315 4.08.641 6.112.967 1.976.316 3.946.631 5.908.935l70.29-70.127c-1.151-4.12-2.486-8.277-3.913-12.46zm6.126 21.542l-61.51 62.562c6.459.738 12.763 1.106 18.811.686l44.31-44.043c.389-6.242-.279-12.662-1.611-19.205z" fill="#fff"/></mask><g mask="url(#a)"><path d="M158.271 82.895h36.019l-26.969 45.793c.241-.121.845-.181 1.81-.181 13.032-.724 23.409 2.655 31.132 10.136 7.843 7.361 11.765 17.617 11.765 30.77 0 14.239-4.465 25.038-13.394 32.399-8.929 7.361-20.694 11.041-35.295 11.041-14.48 0-26.185-3.68-35.114-11.041-8.929-7.361-13.394-18.16-13.394-32.399 0-9.05 2.775-18.341 8.326-27.874l35.114-58.644zm5.068 102.084c10.619 0 15.928-5.189 15.928-15.566 0-10.619-5.309-15.928-15.928-15.928-10.739 0-16.109 5.309-16.109 15.928 0 10.377 5.37 15.566 16.109 15.566z" fill="#fff"/></g></g><defs><clipPath id="clip0"><path fill="#fff" d="M0 0h215.608v274.079H0z"/></clipPath></defs></svg>
